icons/arrow-down-24.svg

<svg width="24" height="24" viewBox="0 0 24 24" xmlns="http://www.w3.org/2000/svg">
  <path fill-rule="evenodd" clip-rule="evenodd" d="M4.96967 13.2197C4.67678 13.5126 4.67678 13.9874 4.96967 14.2803L11.2197 20.5303C11.5126 20.8232 11.9874 20.8232 12.2803 20.5303L18.5303 14.2803C18.8232 13.9874 18.8232 13.5126 18.5303 13.2197C18.2374 12.9268 17.7626 12.9268 17.4697 13.2197L12.5 18.1893V3.75C12.5 3.33579 12.1642 3 11.75 3C11.3358 3 11 3.33579 11 3.75V18.1893L6.03033 13.2197C5.73744 12.9268 5.26256 12.9268 4.96967 13.2197Z"/>
</svg>

<svg xmlns="http://www.w3.org/2000/svg" width="24" height="24" viewBox="0 0 24 24"><path fill-rule="evenodd" d="M4.97 13.22a.75.75 0 000 1.06l6.25 6.25a.75.75 0 001.06 0l6.25-6.25a.75.75 0 10-1.06-1.06l-4.97 4.97V3.75a.75.75 0 00-1.5 0v14.44l-4.97-4.97a.75.75 0 00-1.06 0z"/></svg>
